X: 2
T: The Blackhaired Lass
R: slip jig
M: 9/8
L: 1/8
K: Dmaj
FAA FAd AFD|FAA FAd B2A|FAA FAd AFD|EDB, DFA B2A:|f3/g/f faf edB|f3/g/f fef g2e|f3/g/f faf edB|BAF DFA B2A:|


Tune 407	Setting 26032

